packages/icons/svg/Fill/github.svg

<svg width="24" height="24" viewBox="0 0 24 24" fill="none" xmlns="http://www.w3.org/2000/svg">
<g id="Icon/Fill/github">
<path id="Mask" fill-rule="evenodd" clip-rule="evenodd" d="M11.9995 1C5.92551 1 0.999512 5.82 0.999512 11.767C0.999512 16.522 4.15151 20.558 8.52251 21.981C9.07351 22.08 9.27351 21.748 9.27351 21.462C9.27351 21.207 9.26451 20.529 9.25951 19.632C6.19951 20.282 5.55451 18.188 5.55451 18.188C5.05351 16.944 4.33251 16.613 4.33251 16.613C3.33351 15.945 4.40851 15.959 4.40851 15.959C5.51251 16.035 6.09251 17.068 6.09251 17.068C7.07351 18.714 8.66651 18.238 9.29451 17.963C9.39451 17.268 9.67751 16.793 9.99251 16.523C7.54951 16.252 4.98151 15.328 4.98151 11.203C4.98151 10.028 5.41051 9.067 6.11451 8.314C6.00051 8.042 5.62351 6.947 6.22151 5.465C6.22151 5.465 7.14551 5.176 9.24751 6.568C10.1245 6.329 11.0655 6.211 12.0005 6.206C12.9345 6.211 13.8755 6.329 14.7545 6.568C16.8545 5.176 17.7765 5.465 17.7765 5.465C18.3765 6.947 17.9995 8.042 17.8855 8.314C18.5905 9.067 19.0165 10.028 19.0165 11.203C19.0165 15.339 16.4445 16.249 13.9945 16.516C14.3895 16.848 14.7405 17.505 14.7405 18.509C14.7405 19.948 14.7275 21.109 14.7275 21.462C14.7275 21.75 14.9255 22.085 15.4835 21.98C19.8505 20.554 22.9995 16.521 22.9995 11.767C22.9995 5.82 18.0745 1 11.9995 1Z" fill="#000000"/>
</g>
</svg>

<svg fill="none" height="24" viewBox="0 0 24 24" width="24" xmlns="http://www.w3.org/2000/svg"><path clip-rule="evenodd" d="m11.9995 1c-6.07399 0-10.999988 4.82-10.999988 10.767 0 4.755 3.151998 8.791 7.522998 10.214.551.099.751-.233.751-.519 0-.255-.009-.933-.014-1.83-3.06.65-3.705-1.444-3.705-1.444-.501-1.244-1.222-1.575-1.222-1.575-.999-.668.076-.654.076-.654 1.104.076 1.684 1.109 1.684 1.109.981 1.646 2.574 1.17 3.202.895.1-.695.383-1.17.698-1.44-2.443-.271-5.011-1.195-5.011-5.32 0-1.175.429-2.136 1.133-2.889-.114-.272-.491-1.367.107-2.849 0 0 .924-.289 3.026 1.103.87699-.239 1.81799-.357 2.75299-.362.934.005 1.875.123 2.754.362 2.1-1.392 3.022-1.103 3.022-1.103.6 1.482.223 2.577.109 2.849.705.753 1.131 1.714 1.131 2.889 0 4.136-2.572 5.046-5.022 5.313.395.332.746.989.746 1.993 0 1.439-.013 2.6-.013 2.953 0 .288.198.623.756.518 4.367-1.426 7.516-5.459 7.516-10.213 0-5.947-4.925-10.767-11-10.767" fill="#6b7280" fill-rule="evenodd"/></svg>
